X:1
T:The Flowers O' Edinburgh
T:The Flowers O' Edinburgh
T:James Oswald
C:Traditional
%%score 1 { 2 | 3 }
L:1/8
Q:1/4=152
M:4/4
K:G
V:1 treble nm="Violin" snm="Vln."
V:2 treble nm="Accordion" snm="Acc."
V:3 bass 
V:1
"^Allegro" z2 |: z8 | z8 | z8 | z8 | z8 | z8 | z8 |1 z8 :|2 z8 |: z8 | z8 | z8 | z8 | z8 | z8 | %16
 z8 |1 z8 :|2 z8 |:"^Roland FR4XVUPG6-01 Violin" D2 DE G2 GA | BGBd cBAG | FGFE DEFG | AFdF E2 GE | %23
 D2 DE G2 GA | BGBd efge | dcBA GFGA |1 B2 G2 G2 GE :|2 B2 G2 G2 d2 |: g2 gd gbag | f2 fd fagf | %30
 e2 ef gfed | B2 e2 e2 ge | dBGB d2 d2 | edef g2 fe | dcBA GFGA |1 B2 G2 G2 d2 :|2 B2 G2 G2 GE |: %37
 D2 DE [DG]2 GA | BGBd cBAG | FGFE DEFG | AFdF E2 GE | D2 DE [DG]2 GA | BGBd efge | dcBA GFGA |1 %44
 [GB]2 G2 G2 GE :|2 [GB]2 G2 G2 d2 |: [eg]2 gd gbag | [df]2 fd fagf | [Be]2 ef gfed | %49
 [FB]2 e2 e2 ge | dBGB [Bd]2 d2 | edef [eg]2 fe | dcBA GFGA |1 [GB]2 G2 G2 d2 :|2 [GB]2 G2 G2 z2 || %55
 G8 |] %56
V:2
 GE |:"^Roland FR4XVUPG6-01 Accordion Solo" D2 DE G2 GA | BGBd cBAG | FGFE DEFG | AFdF E2 GE | %5
 D2 DE G2 GA | BGBd efge | dcBA GFGA |1 B2 G2 G2 GE :|2 B2 G2 G2 d2 |: g2 gd gbag | f2 fd fagf | %12
 e2 ef gfed | B2 e2 e2 ge | dBGB d2 d2 | edef g2 fe | dcBA GFGA |1 B2 G2 G2 d2 :|2 B2 G2 G2 z2 |: %19
 D2 DE G2 GA | BGBd cBAG | FGFE DEFG | AFdF E2 GE | D2 DE G2 GA | BGBd efge | dcBA GFGA |1 %26
 B2 G2 G2 GE :|2 B2 G2 G2 d2 |: g2 gd gbag | f2 fd fagf | e2 ef gfed | B2 e2 e2 ge | dBGB d2 d2 | %33
 edef g2 fe | dcBA GFGA |1 B2 G2 G2 d2 :|2 B2 G2 G2 GE |: D2 DE [DG]2 GA | BGBd cBAG | FGFE DEFG | %40
 AFdF E2 GE | D2 DE [DG]2 GA | BGBd efge | dcBA GFGA |1 [GB]2 G2 G2 GE :|2 [GB]2 G2 G2 d2 |: %46
 [eg]2 gd gbag | [df]2 fd fagf | [Be]2 ef gfed | [FB]2 e2 e2 ge | dBGB [Bd]2 d2 | edef [eg]2 fe | %52
 dcBA GFGA |1 [GB]2 G2 G2 d2 :|2 [GB]2 G2 G2 z2 || G8 |] %56
V:3
 z2 |:"_G" .G,,2"G" .[G,B,D]2"_D" .D,,2"G" .[G,B,D]2 | %2
"_G" .G,,2"G" .[G,B,D]2"_C" .C,,2"C" .[CEG]2 |"_D" .D,,2"D" .[DFA]2"_A" .A,,2"D" .[DFA]2 | %4
"D/D" .[D,,DFA]2 z2"Em/E" .[E,,E,G,B,]2 z2 |"_G" .G,,2"G" .[G,B,D]2"_D" .D,,2"G" .[G,B,D]2 | %6
"_G" .G,,2"G" .[G,B,D]2"_C" .C,,2"C" .[CEG]2 |"_D" .D,,2"D" .[DFA]2"_A" .A,,2"D" .[DFA]2 |1 %8
"G/G" .[G,,G,B,D]2 z2 .[G,,G,B,D]2 z2 :|2"G/G" .[G,,G,B,D]2 z2 .[G,,G,B,D]2 z2 |: %10
"_E" .E,,2"Em" .[E,G,B,]2"_B" .B,,2"Em" .[E,G,B,]2 |"_D" .D,,2"D" .[DFA]2"_A" .A,,2"D" .[DFA]2 | %12
"_E" .E,,2"Em" .[E,G,B,]2"_B" .B,,2"Em" .[E,G,B,]2 |"D/D" .[E,,E,G,B,]2 z2"C/C" .[C,,CEG]2 z2 | %14
"_G" .G,,2"G" .[G,B,D]2"_D" .D,,2"G" .[G,B,D]2 |"_C" .C,,2"C" .[CEG]2"_G" .G,,2"C" .[CEG]2 | %16
"_D" .D,,2"D" .[DFA]2"_A" .A,,2"D" .[DFA]2 |1"G/G" .[G,,G,B,D]2 z2 .[G,,G,B,D]2 z2 :|2 %18
"G/G" .[G,,G,B,D]2 z2 .[G,,G,B,D]2 z2 |:"_G" .G,,2"G" .[G,B,D]2"_D" .D,,2"G" .[G,B,D]2 | %20
"_G" .G,,2"G" .[G,B,D]2"_C" .C,,2"C" .[CEG]2 |"_D" .D,,2"D" .[DFA]2"_A" .A,,2"D" .[DFA]2 | %22
"D/D" .[D,,DFA]2 z2"Em/E" .[E,,E,G,B,]2 z2 |"_G" .G,,2"G" .[G,B,D]2"_D" .D,,2"G" .[G,B,D]2 | %24
"_G" .G,,2"G" .[G,B,D]2"_C" .C,,2"C" .[CEG]2 |"_D" .D,,2"D" .[DFA]2"_A" .A,,2"D" .[DFA]2 |1 %26
"G/G" .[G,,G,B,D]2 z2 .[G,,G,B,D]2 z2 :|2"G/G" .[G,,G,B,D]2 z2 .[G,,G,B,D]2 z2 |: %28
"_E" .E,,2"Em" .[E,G,B,]2"_B" .B,,2"Em" .[E,G,B,]2 |"_D" .D,,2"D" .[DFA]2"_A" .A,,2"D" .[DFA]2 | %30
"_E" .E,,2"Em" .[E,G,B,]2"_B" .B,,2"Em" .[E,G,B,]2 |"D/D" .[E,,E,G,B,]2 z2"C/C" .[C,,CEG]2 z2 | %32
"_G" .G,,2"G" .[G,B,D]2"_D" .D,,2"G" .[G,B,D]2 |"_C" .C,,2"C" .[CEG]2"_G" .G,,2"C" .[CEG]2 | %34
"_D" .D,,2"D" .[DFA]2"_A" .A,,2"D" .[DFA]2 |1"G/G" .[G,,G,B,D]2 z2 .[G,,G,B,D]2 z2 :|2 %36
"G/G" .[G,,G,B,D]2 z2 .[G,,G,B,D]2 z2 |:"_G" .G,,2"G" .[G,B,D]2"_D" .D,,2"G" .[G,B,D]2 | %38
"_G" .G,,2"G" .[G,B,D]2"_C" .C,,2"C" .[CEG]2 |"_D" .D,,2"D" .[DFA]2"_A" .A,,2"D" .[DFA]2 | %40
"D/D" .[D,,DFA]2 z2"Em/E" .[E,,E,G,B,]2 z2 |"_G" .G,,2"G" .[G,B,D]2"_D" .D,,2"G" .[G,B,D]2 | %42
"_G" .G,,2"G" .[G,B,D]2"_C" .C,,2"C" .[CEG]2 |"_D" .D,,2"D" .[DFA]2"_A" .A,,2"D" .[DFA]2 |1 %44
"G/G" .[G,,G,B,D]2 z2 .[G,,G,B,D]2 z2 :|2"G/G" .[G,,G,B,D]2 z2 .[G,,G,B,D]2 z2 |: %46
"_E" .E,,2"Em" .[E,G,B,]2"_B" .B,,2"Em" .[E,G,B,]2 |"_D" .D,,2"D" .[DFA]2"_A" .A,,2"D" .[DFA]2 | %48
"_E" .E,,2"Em" .[E,G,B,]2"_B" .B,,2"Em" .[E,G,B,]2 |"D/D" .[E,,E,G,B,]2 z2"C/C" .[C,,CEG]2 z2 | %50
"_G" .G,,2"G" .[G,B,D]2"_D" .D,,2"G" .[G,B,D]2 |"_C" .C,,2"C" .[CEG]2"_G" .G,,2"C" .[CEG]2 | %52
"_D" .D,,2"D" .[DFA]2"_A" .A,,2"D" .[DFA]2 |1"G/G" .[G,,G,B,D]2 z2 .[G,,G,B,D]2 z2 :|2 %54
"G/G" .[G,,G,B,D]2 z2 .[G,,G,B,D]2 z2 ||"G/G" [G,,G,B,D]8 |] %56

